!!!COM: Corelli, Arcangelo
!!!OTL: 
!!!ONM: Opus 3, No. 7
!!!OMV: 1
!!!CDT: 1653/2/17/-1713/1/8/
!!!OCY: Italia
**kern	**kern	**kern	**kern
*clefC	*clefC	*clefG	*clefG
*k[f#]	*k[f#]	*k[f#]	*k[f#]
*e:	*e:	*e:	*e:
*M4/4	*M4/4	*M4/4	*M4/4
=1	=1	=1	=1
2.E	1r	1r	4r
.	.	.	4e
.	.	.	2cc
4F#	.	.	.
=2	=2	=2	=2
4G	1r	4r	2.b
4G#	.	4e	.
2A	.	2cc	.
.	.	.	[4a
=3	=3	=3	=3
4D#	4r	2.b	4a]
4E	4E	.	8g
.	.	.	8f#
2c	2c	.	2e
.	.	[4a	.
=4	=4	=4	=4
4B	4B	4a]	4d#
8E	8E	8g	2b
8D	8D	8f#	.
2C	2C	2e	.
.	.	.	4a
=5	=5	=5	=5
2BB	2BB	2d#	2b
[2B	[2B	2r	4r
.	.	.	4b
=6	=6	=6	=6
4B]	4B]	2.r	2gg
4c#	4c#	.	.
4d	4d	.	[2ff#
4d#	4d#	4b	.
=7	=7	=7	=7
2e	2e	2gg	4ff#]
.	.	.	2ee
4A#	4A#	[2ff#	.
4BB	4BB	.	8dd
.	.	.	8cc#
=8	=8	=8	=8
2G	2G	4ff#]	2b
.	.	2ee	.
4F#	4F#	.	4a#
8BB	8BB	8dd	[4ff#
8AA	8AA	8cc#	.
=9	=9	=9	=9
2GG	2GG	2b	4ff#]
.	.	.	4ee
2FF#	2FF#	2a#	2ff#
=10	=10	=10	=10
4F#	4F#	2r	2.ff#
4G#	4G#	.	.
4.A#	4.A#	[2cc#	.
.	.	.	4ee
8F#	8F#	.	.
=11	=11	=11	=11
8B	8B	4cc#]	2dd
8BB	8BB	.	.
8D	8D	2b	.
8E	8E	.	.
4F#	4F#	.	4.cc#
4FF#	4FF#	[4a	.
.	.	.	8ff#
=12	=12	=12	=12
2BB	2BB	4a]	8dd#
.	.	.	8b
.	.	4g	2ee
2B	2B	4.f#	.
.	.	.	[4dd
.	.	8b	.
=13	=13	=13	=13
2E	2E	8g#	4dd]
.	.	8e	.
.	.	2a	4cc
2e	2e	.	4b
.	.	4g#	[4ee
=14	=14	=14	=14
2A	2A	2ff	8ee]
.	.	.	8a
.	.	.	2dd
8G#	8G#	2ee	.
8E	8E	.	.
[4A	[4A	.	4cc
=15	=15	=15	=15
4A]	4A]	8dd#	4b
.	.	8b	.
4G	4G	2ee	4bb
4F#	4F#	.	[2aa
4B	4B	4dd#	.
=16	=16	=16	=16
4E	4E	2.bb	4aa]
4EE	4EE	.	4gg#
4AA	4AA	.	2ccc
4A	4A	[4aa	.
=17	=17	=17	=17
8D#	8D#	4aa]	4.bb
8BB	8BB	.	.
8E	8E	4gg	.
8GG	8GG	.	8bb
4AA	4AA	8ff	4aa
.	.	8dd#	.
4AA#	4AA#	[4ee	8gg
.	.	.	8ff#
=18	=18	=18	=18
2BB	2BB	4ee]	4gg
.	.	4dd#	4ff#
4E	4E	4ee	4ee
4GG	4GG	[4b	4r
=19	=19	=19	=19
2AA	2AA	4b]	2cc
.	.	2a	.
[2BB	[2BB	.	4d#
.	.	4g	[4e
=20	=20	=20	=20
2BB]	2BB]	2f#	4e]
.	.	.	4d#
2EE	2EE	2e	2e
==	==	==	==
*-	*-	*-	*-
!!!RWG: This file only contains pitch and duration data.
!!!RWG: Transposing instruments are not transposed.
!!!RWG: Durations of rests and tied notes may be interpreted.
!!!RWG: Key is interpreted using the Humdrum key tool.
!!!SCA: 
!!!YOR: Chrysander Edition
!!!AGN: chamber
!!!AFT: stage1
!!!ENC: F. Bennion
!!!END: 1997/04/15
!!!AST: baroque
!!!YEC: Copyright 1994, Center for Computer Assisted Research in the Humanities
!!!YEM: Rights to all derivative electronic formats reserved.
!!!YEM: Refer to licensing agreement for further details.
!!!YEN: United States of America
!!!EED: W.B. Hewlett
!!!KEY: 2444435950
!!!EMD: Converted from MuseData to Humdrum Aug 9, 1999, by Bret Aarden using muse2kern.
!!!VTS: 2818561022
